public/icons/logo.svg

<svg width="31" height="18" viewBox="0 0 31 18" fill="none" xmlns="http://www.w3.org/2000/svg">
<g clip-path="url(#clip0_125_5028)">
<path d="M21.3295 12.8089C21.2647 12.6555 15.939 2.24849 15.8518 2.10508C15.6678 1.67067 15.395 1.27833 15.0505 0.952554C14.7059 0.626774 14.2969 0.37455 13.849 0.211631C13.4011 0.0487122 12.924 -0.021402 12.4474 0.00566646C11.9709 0.0327349 11.5051 0.156405 11.0791 0.368954C10.6532 0.581502 10.2762 0.878366 9.97186 1.24101C9.66748 1.60365 9.44218 2.02428 9.31003 2.47663C9.17788 2.92898 9.14173 3.40335 9.20382 3.8701C9.26591 4.33685 9.42491 4.78596 9.6709 5.1894C9.73571 5.34285 14.8331 15.3039 14.9204 15.4473C14.9854 15.6012 15.0616 15.7503 15.1486 15.8933C15.3326 16.3277 15.6054 16.72 15.9499 17.0458C16.2945 17.3716 16.7035 17.6238 17.1514 17.7867C17.5993 17.9496 18.0764 18.0197 18.553 17.9927C19.0295 17.9656 19.4953 17.8419 19.9213 17.6294C20.3472 17.4168 20.7241 17.1199 21.0285 16.7573C21.3329 16.3947 21.5582 15.974 21.6904 15.5217C21.8225 15.0693 21.8587 14.595 21.7966 14.1282C21.7345 13.6615 21.5755 13.2124 21.3295 12.8089Z" fill="#173D33"/>
<path d="M15.1793 5.767C15.5058 5.42388 15.7571 5.01806 15.9175 4.5749C16.0779 4.13173 16.1439 3.66072 16.1115 3.19126C16.079 2.72181 15.9488 2.26399 15.7289 1.84638C15.509 1.42877 15.2042 1.06034 14.8335 0.764076C14.4628 0.467816 14.0341 0.250088 13.5743 0.124482C13.1145 -0.00112338 12.6333 -0.0319097 12.1608 0.0340447C11.6884 0.099999 11.2348 0.261278 10.8284 0.507816C10.422 0.754353 10.0714 1.08086 9.79868 1.46695C9.68415 1.58728 1.03676 12.0967 0.940665 12.2324C0.614149 12.5755 0.36286 12.9813 0.202481 13.4245C0.0421021 13.8676 -0.0239231 14.3386 0.00852645 14.8081C0.040976 15.2776 0.171204 15.7354 0.391081 16.153C0.610959 16.5706 0.915765 16.939 1.28648 17.2353C1.65719 17.5316 2.08584 17.7493 2.54569 17.8749C3.00554 18.0005 3.4867 18.0313 3.95915 17.9653C4.4316 17.8994 4.88519 17.7381 5.29161 17.4915C5.69803 17.245 6.04856 16.9185 6.32131 16.5324C6.43584 16.4121 15.0832 5.90271 15.1793 5.767Z" fill="#97D28B"/>
<path d="M30.0597 5.76677C30.3862 5.42364 30.6375 5.01783 30.7979 4.57466C30.9582 4.13149 31.0243 3.66048 30.9918 3.19102C30.9594 2.72157 30.8292 2.26375 30.6093 1.84614C30.3894 1.42853 30.0846 1.06009 29.7139 0.763833C29.3432 0.467571 28.9145 0.249843 28.4547 0.124237C27.9948 -0.00136802 27.5137 -0.032154 27.0412 0.0338012C26.5688 0.0997563 26.1152 0.261037 25.7088 0.507575C25.3023 0.754114 24.9518 1.08062 24.679 1.46671C24.5645 1.58704 15.9171 12.0964 15.821 12.2321C15.4945 12.5753 15.2432 12.9811 15.0829 13.4242C14.9225 13.8674 14.8564 14.3384 14.8889 14.8079C14.9213 15.2773 15.0516 15.7351 15.2715 16.1528C15.4913 16.5704 15.7961 16.9388 16.1668 17.2351C16.5376 17.5313 16.9662 17.749 17.4261 17.8746C17.8859 18.0002 18.3671 18.031 18.8395 17.9651C19.312 17.8991 19.7656 17.7378 20.172 17.4913C20.5784 17.2448 20.9289 16.9183 21.2017 16.5322C21.3162 16.4118 29.9636 5.90247 30.0597 5.76677Z" fill="#97D28B"/>
</g>
<defs>
<clipPath id="clip0_125_5028">
<rect width="31" height="18" fill="white"/>
</clipPath>
</defs>
</svg>

<svg width="31" height="18" fill="none" xmlns="http://www.w3.org/2000/svg"><g clip-path="url(#a)"><path d="M21.33 12.809c-.065-.153-5.391-10.56-5.478-10.704A3.426 3.426 0 0 0 15.05.953 3.48 3.48 0 0 0 13.85.212a3.518 3.518 0 0 0-2.77.157c-.426.213-.803.51-1.107.872a3.379 3.379 0 0 0-.301 3.948c.065.154 5.162 10.115 5.25 10.258.064.154.14.303.228.446.184.435.456.827.8 1.153a3.48 3.48 0 0 0 1.202.74 3.52 3.52 0 0 0 2.77-.157c.426-.212.803-.51 1.108-.872a3.38 3.38 0 0 0 .301-3.948z" fill="#173D33"/><path d="M15.18 5.767c.326-.343.577-.749.738-1.192a3.38 3.38 0 0 0-.19-2.729 3.435 3.435 0 0 0-.894-1.082 3.52 3.52 0 0 0-4.005-.256 3.452 3.452 0 0 0-1.03.959c-.115.12-8.762 10.63-8.858 10.765a3.415 3.415 0 0 0-.739 1.193 3.38 3.38 0 0 0 .19 2.728c.219.418.524.786.894 1.082a3.518 3.518 0 0 0 4.005.256 3.452 3.452 0 0 0 1.03-.959c.115-.12 8.762-10.63 8.858-10.765zM30.06 5.767c.326-.343.578-.75.738-1.192a3.38 3.38 0 0 0-.189-2.729 3.434 3.434 0 0 0-.895-1.082 3.52 3.52 0 0 0-4.005-.256 3.452 3.452 0 0 0-1.03.959c-.114.12-8.762 10.63-8.858 10.765a3.416 3.416 0 0 0-.738 1.192 3.38 3.38 0 0 0 .188 2.729c.22.417.525.786.896 1.082a3.52 3.52 0 0 0 4.005.256 3.452 3.452 0 0 0 1.03-.959c.114-.12 8.762-10.63 8.858-10.765z" fill="#97D28B"/></g><defs><clipPath id="a"><path fill="#fff" d="M0 0h31v18H0z"/></clipPath></defs></svg>
